_site/images/integration-page/search-icon.svg

<svg fill="none" height="20" viewBox="0 0 19 20" width="19" xmlns="http://www.w3.org/2000/svg"><path d="m18.7111 18.2168-4.6838-4.9506c1.2043-1.4549 1.8641-3.28551 1.8641-5.19121 0-4.45248-3.5645-8.07499-7.94569-8.07499s-7.94571 3.62251-7.94571 8.07499c0 4.45251 3.56452 8.07501 7.94571 8.07501 1.64477 0 3.21219-.5042 4.55219-1.4612l4.7194 4.9882c.1973.2082.4626.323.7469.323.2691 0 .5244-.1043.7182-.2939.4118-.4027.425-1.0704.0287-1.4893zm-10.76539-16.11028c3.23839 0 5.87289 2.67739 5.87289 5.96847 0 3.29111-2.6345 5.96851-5.87289 5.96851s-5.87292-2.6774-5.87292-5.96851c0-3.29108 2.63453-5.96847 5.87292-5.96847z" fill="#00a0b6"/></svg>

<svg width="19" height="20" viewBox="0 0 19 20" fill="none" xmlns="http://www.w3.org/2000/svg">
<path d="M18.7111 18.2168L14.0273 13.2662C15.2316 11.8113 15.8914 9.98069 15.8914 8.07499C15.8914 3.62251 12.3269 0 7.94571 0C3.56452 0 0 3.62251 0 8.07499C0 12.5275 3.56452 16.15 7.94571 16.15C9.59048 16.15 11.1579 15.6458 12.4979 14.6888L17.2173 19.677C17.4146 19.8852 17.6799 20 17.9642 20C18.2333 20 18.4886 19.8957 18.6824 19.7061C19.0942 19.3034 19.1074 18.6357 18.7111 18.2168ZM7.94571 2.10652C11.1841 2.10652 13.8186 4.78391 13.8186 8.07499C13.8186 11.3661 11.1841 14.0435 7.94571 14.0435C4.70732 14.0435 2.07279 11.3661 2.07279 8.07499C2.07279 4.78391 4.70732 2.10652 7.94571 2.10652Z" fill="#00A0B6"/>
</svg>
